X:773
T:Tha M' Eudail Is Maighear's Mo Graidh
C:Joe Buchanan's Scottish Tome - Page 531.2
I:531 2
Z:Carl Allison
R:Slow Air
L:1/8
M:3/4
K:G
E>F | "Em"{F}G2 A G2 | "Bm"(E2 D4) | "D"(D4 F2) | "F#m"(A2>B2 AF) | "Em"(E4 "Bm"D2) | "Em"E6 | E4 EF |
"Em"{F}G2>A2 G2 | "Bm"{G}F2>E2 F2 | "Bm"(E2 D4) | "D"D4 DF | "F#m"A2>(B2 AF) | "Em"(E4 "Bm"D2) | "Em"E6 | E4 (EF) |
G2>A2 B2 | d2 B2 A2 | "Em"B6 | "Bm"B4 (EF) | "C"G2>A2 G2 | "D"{G}F2>E2 F2 | "Bm"(E2 D4) | "D"(D4 d2) | 
"Em"B2>E2 F2 | {F}E2>D2 B,2 | "D"D6 | "Bm"D4 EF | "Bm"{D}B2>A2 F2 | "Em"(E4 "Bm"D2) | "Em"E6 | E4 |]

